!!!COM:	Japart, Jean
!!!CDT:	~1450//-~1507//
!!!OTL:	De tous biens plaine
!!!AGN:	Song; Chanson
!!!SCT:	Jap3004
!!!SCA:	Jap3004
!!!voices:	4
**kern	**kern	**kern	**kern
*staff4	*staff3	*staff2	*staff1
*Ivox	*Ivox	*Ivox	*Ivox
*I"Bassus	*I"Tenor	*I"Altus	*I"Discantus
*I'B	*I'T	*I'A	*I'D
*clefF4	*clefGv2	*clefGv2	*clefG2
*k[b-]	*k[b-]	*k[b-]	*k[b-]
*M2/1	*M2/1	*M2/1	*M2/1
*met(C|)	*met(C|)	*met(C|)	*met(C|)
=1-	=1-	=1-	=1-
0r	1.G	[0d	0g
.	4F	.	.
.	4E	.	.
=2	=2	=2	=2
0r	2.D	0d]	2.f
.	4E	.	4g
.	2F	.	2a
.	[2G	.	[2b-
=3	=3	=3	=3
0r	4G]	0B-	2b-]
.	4A	.	.
.	4B-	.	4a
.	4c	.	4g
.	2d	.	2f
.	4c	.	[2g
.	4d	.	.
=4	=4	=4	=4
0r	4e-i	0c	4g]
.	4d	.	4f
.	4c	.	2.a
.	4B-	.	.
.	1A	.	.
.	.	.	4e
.	.	.	2f#i
=5	=5	=5	=5
1.GG	1G	1d	1g
.	1D	[1B-	1r
2D	.	.	.
=6	=6	=6	=6
2E	1r	1B-]	1g
1G	.	.	.
.	1c	1A	1a
2F	.	.	.
=7	=7	=7	=7
2G	2B-	0G	2b-
2GG	1d	.	1g
2BB-	.	.	.
2C	4c	.	4f
.	4B-	.	4e
=8	=8	=8	=8
1D	1A	1F	4f
.	.	.	4e
.	.	.	4d
.	.	.	4c
2r	2G	1G	2B-
[2G	[2B-	.	[2d
=9	=9	=9	=9
2G]	4B-]	0B-	4d]
.	4c	.	4e
2F	1d	.	2.f
2D	.	.	.
.	.	.	4d
2E-i	2B-	.	[2g
=10	=10	=10	=10
1C	1c	1A	2g]
.	.	.	4f
.	.	.	4e
[1BB-	2F	1B-	[1d
.	[2B-	.	.
=11	=11	=11	=11
2BB-]	2B-]	0G	2d]
1C	2G	.	2.e
.	2c	.	.
.	.	.	4f
2E-i	2B-	.	[2g
=12	=12	=12	=12
1D	1d	1A	2g]
.	.	.	2f#i
1GG	2.B-	1G	[1g
.	4A	.	.
=13	=13	=13	=13
0r	4G	0d	2g]
.	4F	.	.
.	2.G	.	1b-
.	4A	.	.
.	2B-	.	2g
=14	=14	=14	=14
1r	2A	0c	2a
.	4G	.	2b-
.	4F	.	.
1G	1E	.	4cc
.	.	.	4b-
.	.	.	4a
.	.	.	4g
=15	=15	=15	=15
2A	2D	[0d	2f
2B-	1G	.	2g
2G	.	.	2b-
2F	2A	.	[2a
=16	=16	=16	=16
2.G	2.B-	0d]	2a]
.	.	.	2g
4F	4A	.	.
2D	2F	.	2a
[2G	2B-	.	[2b-
=17	=17	=17	=17
2G]	2G	1r	2b-]
4F	1A	.	4a
4E	.	.	4g
1D	.	1d	1f#i
.	2B-	.	.
=18	=18	=18	=18
0C	1.c	1e-i	1g
.	.	1e-i	2r
.	4B-	.	2c
.	4A	.	.
=19	=19	=19	=19
1r	2G	0B-	2d
.	4F	.	2.g
.	4E	.	.
1GG	1D	.	.
.	.	.	4f
.	.	.	2g
=20	=20	=20	=20
1AA	1C	1c	2e
.	.	.	2f
2BB-	1r	[1G	2d
[2C	.	.	[2e
=21	=21	=21	=21
2C]	1c	1G]	4e]
.	.	.	4d
2E-i	.	.	1g
1D	1d	1A	.
.	.	.	2f
=22	=22	=22	=22
2r	2e-i	0G	2.b-
1G	1d	.	.
.	.	.	4cc
.	.	.	1dd
2B-	2G	.	.
=23	=23	=23	=23
2A	1A	1c	2cc
2F	.	.	1a
1G	2G	1B-	.
.	2E	.	2g
=24	=24	=24	=24
1.D	1F	0A	2a
.	.	.	2.f
.	1D	.	.
.	.	.	4g
[2F	.	.	[2a
=25	=25	=25	=25
2F]	1r	0c	4a]
.	.	.	4b-
4E	.	.	2.cc
4D	.	.	.
1E	1G	.	.
.	.	.	4b-
.	.	.	4a
.	.	.	4g
=26	=26	=26	=26
1D	2A	1d	2f
.	2F	.	1d
1r	2E	1e	.
.	4D	.	2c
.	4C	.	.
=27	=27	=27	=27
0r	2BB-	0f	2d
.	2C	.	4c
.	.	.	4B-
.	1D	.	1A
=28	=28	=28	=28
1.GG	2E	[0g	2r
.	2.G	.	2G
.	.	.	2B-
.	4F	.	.
[2C	2E	.	2c
=29	=29	=29	=29
2C]	1D	0g]	1d
2BB-	.	.	.
2C	2r	.	2e
[2E-	[2C	.	[2g
=30	=30	=30	=30
4E-]	4C]	1r	4g]
4D	4D	.	4f
2.C	2.E	.	1e
.	.	1G	.
4BB-	4F	.	.
4AA	[2G	.	2d
4GG	.	.	.
=31	=31	=31	=31
1AA	2G]	1A	2.c
.	2F#i	.	.
.	.	.	4B-
1GG	1G	1B-	1d
=32	=32	=32	=32
0r	1D	0d	2.f
.	.	.	4g
.	2r	.	2a
.	2D	.	2b-
=33	=33	=33	=33
0r	2F	0c	2a
.	2G	.	1g
.	1A	.	.
.	.	.	2f#i
=34	=34	=34	=34
1.GG	1.G	1d	1.g
.	.	[1B-	.
[2G	[2B-	.	[2d
=35	=35	=35	=35
2G]	2B-]	1B-]	2d]
2F	4A	.	2e
.	4G	.	.
2D	2.F	1A	[1f
[2F	.	.	.
.	4G	.	.
=36	=36	=36	=36
2F]	2A	0c	1f]
4E	2B-	.	.
4D	.	.	.
1C	2c	.	1e
.	2A	.	.
=37	=37	=37	=37
2BB-	1B-	0d	1d
1GG	.	.	.
.	1A	.	1a
2FF#i	.	.	.
=38	=38	=38	=38
2GG	2r	1B-	2g
2G	2d	.	2.b-
2E	2c	1c	.
.	.	.	4a
2F	2A	.	[2a
=39	=39	=39	=39
1G	1B-	1e-i	2a]
.	.	.	2g
1D	2A	[1d	2a
.	[2d	.	[2b-
=40	=40	=40	=40
1BB-	2d]	1d]	2b-]
.	2B-	.	1g
1C	2G	1e-i	.
.	2c	.	[2a
=41	=41	=41	=41
0D	2B-	[0d	4a]
.	.	.	4g
.	4A	.	1g
.	4G	.	.
.	1A	.	.
.	.	.	2f#i
=42	=42	=42	=42
0GG	0G	0d]	1g
.	.	.	2d
.	.	.	[2g
=43	=43	=43	=43
0BB-	1r	1r	2g]
.	.	.	2f
.	1D	1d	2d
.	.	.	2f
=44	=44	=44	=44
0C	2.E	1c	2e
.	.	.	1c
.	4F	.	.
.	2.G	1e	.
.	.	.	[2g
.	4A	.	.
=45	=45	=45	=45
1GG	2B-	1d	4g]
.	.	.	4a
.	2.G	.	2.b-
1r	.	1g	.
.	4F	.	4cc
.	2E	.	[2dd
=46	=46	=46	=46
1r	2D	0f	2dd]
.	2.d	.	4cc
.	.	.	4b-
1D	.	.	1a
.	4c	.	.
.	2d	.	.
=47	=47	=47	=47
2E	2G	[0g	1g
1G	1B-	.	.
.	.	.	1d
2F	2A	.	.
=48	=48	=48	=48
2E	2B-	0g]	2e
4D	2c	.	2.g
4C	.	.	.
1BB-	1d	.	.
.	.	.	4f
.	.	.	4e
.	.	.	4d
=49	=49	=49	=49
1C	2c	1r	2e
.	2e	.	4d
.	.	.	4c
1GG	1d	1g	2.Bni
.	.	.	4A
=50	=50	=50	=50
0C	1c	0e	1c
.	1G	.	2r
.	.	.	[2cc
=51	=51	=51	=51
0G	1r	1d	2cc]
.	.	.	4bni
.	.	.	4a
.	[1G	1d	1bni
=52	=52	=52	=52
1C	2G]	1c	2cc
.	2A	.	2.a
1G	2B-	1B-	.
.	.	.	4g
.	2c	.	[2g
=53	=53	=53	=53
1D	1d	1A	2g]
.	.	.	2f#i
2GG	2D	[1G	1g
[2C	[2E	.	.
=54	=54	=54	=54
2C]	4E]	1G]	1r
.	4D	.	.
2BB-	1D	.	.
1AA	.	1F#i	1a
.	2C	.	.
=55	=55	=55	=55
1.GG	1D	1G	1.d
.	[1d	[1B-	.
[2D	.	.	[2f
=56	=56	=56	=56
2D]	1d]	1B-]	2f]
1G	.	.	2g
.	1c	1A	1a
2F#i	.	.	.
=57	=57	=57	=57
1G	2B-	1G	2b-
.	2.d	.	1g
1D	.	1A	.
.	4c	.	.
.	2A	.	2f
=58	=58	=58	=58
0GG	2B-	1G	2g
.	2.G	.	2d
.	.	1B-	2g
.	4F	.	.
.	2G	.	2b-
=59	=59	=59	=59
1r	2A	0c	2a
.	4G	.	2.cc
.	4F	.	.
1AA	1E	.	.
.	.	.	4b-
.	.	.	4a
.	.	.	4g
=60	=60	=60	=60
2BB-	2D	[0dl	2f
1GG	1G	.	2g
.	.	.	2b-
2D	2F	.	[2a
=61	=61	=61	=61
2BB-	2G	0d_	4a]
.	.	.	4g
2GG	2B-	.	1g
1D	1A	.	.
.	.	.	2f#i
=62	=62	=62	=62
0GGl	0Gl	0d]	0gl
==	==	==	==
*-	*-	*-	*-
!!!RDF**kern: l=long note in original notation
!!!RDF**kern: i=editorial accidental
!!!ENC:	Chris Gage 09-04-2013
!!!END:	2013/10/22/
!!!EED:	Jesse Rodin
!!!EEV:	2013/12/19/
!!!ONB:	Translated from MusicXML and edited on 2013/12/19/ by Craig Sapp
!!muse2ps: C^@{COM}^i2I150v85,85,85,100Q8c120
